images/11949099.svg

<?xml version="1.0" encoding="UTF-8"?>
<svg xmlns="http://www.w3.org/2000/svg" xmlns:xlink="http://www.w3.org/1999/xlink" width="300pt" height="300pt" viewBox="0 0 300 300" version="1.1">
<defs>
<g>
<symbol overflow="visible" id="glyph0-0">
<path style="stroke:none;" d="M 0.640625 2.296875 L 0.640625 -9.171875 L 7.140625 -9.171875 L 7.140625 2.296875 Z M 1.375 1.578125 L 6.421875 1.578125 L 6.421875 -8.4375 L 1.375 -8.4375 Z M 1.375 1.578125 "/>
</symbol>
<symbol overflow="visible" id="glyph0-1">
<path style="stroke:none;" d="M 5.125 -8.609375 C 4.1875 -8.609375 3.441406 -8.257812 2.890625 -7.5625 C 2.347656 -6.875 2.078125 -5.929688 2.078125 -4.734375 C 2.078125 -3.535156 2.347656 -2.585938 2.890625 -1.890625 C 3.441406 -1.203125 4.1875 -0.859375 5.125 -0.859375 C 6.050781 -0.859375 6.785156 -1.203125 7.328125 -1.890625 C 7.878906 -2.585938 8.15625 -3.535156 8.15625 -4.734375 C 8.15625 -5.929688 7.878906 -6.875 7.328125 -7.5625 C 6.785156 -8.257812 6.050781 -8.609375 5.125 -8.609375 Z M 5.125 -9.65625 C 6.445312 -9.65625 7.503906 -9.207031 8.296875 -8.3125 C 9.097656 -7.414062 9.5 -6.222656 9.5 -4.734375 C 9.5 -3.234375 9.097656 -2.035156 8.296875 -1.140625 C 7.503906 -0.253906 6.445312 0.1875 5.125 0.1875 C 3.789062 0.1875 2.722656 -0.253906 1.921875 -1.140625 C 1.128906 -2.035156 0.734375 -3.234375 0.734375 -4.734375 C 0.734375 -6.222656 1.128906 -7.414062 1.921875 -8.3125 C 2.722656 -9.207031 3.789062 -9.65625 5.125 -9.65625 Z M 5.125 -9.65625 "/>
</symbol>
<symbol overflow="visible" id="glyph0-2">
<path style="stroke:none;" d="M 1.28125 -9.484375 L 3 -9.484375 L 7.203125 -1.546875 L 7.203125 -9.484375 L 8.453125 -9.484375 L 8.453125 0 L 6.71875 0 L 2.515625 -7.921875 L 2.515625 0 L 1.28125 0 Z M 1.28125 -9.484375 "/>
</symbol>
<symbol overflow="visible" id="glyph0-3">
<path style="stroke:none;" d="M 1.28125 -9.484375 L 2.5625 -9.484375 L 2.5625 -5.59375 L 7.21875 -5.59375 L 7.21875 -9.484375 L 8.5 -9.484375 L 8.5 0 L 7.21875 0 L 7.21875 -4.515625 L 2.5625 -4.515625 L 2.5625 0 L 1.28125 0 Z M 1.28125 -9.484375 "/>
</symbol>
</g>
</defs>
<g id="surface31657">
<rect x="0" y="0" width="300" height="300" style="fill:rgb(100%,100%,100%);fill-opacity:1;stroke:none;"/>
<path style="fill:none;stroke-width:1.2;stroke-linecap:butt;stroke-linejoin:miter;stroke:rgb(0%,0%,0%);stroke-opacity:1;stroke-miterlimit:10;" d="M 35.25 151.78125 L 52.511719 153.082031 "/>
<path style="fill:none;stroke-width:1.2;stroke-linecap:butt;stroke-linejoin:miter;stroke:rgb(100%,0%,0%);stroke-opacity:1;stroke-miterlimit:10;" d="M 52.511719 153.082031 L 69.777344 154.386719 "/>
<path style="fill:none;stroke-width:1.2;stroke-linecap:butt;stroke-linejoin:miter;stroke:rgb(100%,0%,0%);stroke-opacity:1;stroke-miterlimit:10;" d="M 69.777344 154.386719 L 77.28125 169.988281 "/>
<path style="fill:none;stroke-width:1.2;stroke-linecap:butt;stroke-linejoin:miter;stroke:rgb(0%,0%,0%);stroke-opacity:1;stroke-miterlimit:10;" d="M 77.28125 169.988281 L 84.78125 185.589844 "/>
<path style=" stroke:none;fill-rule:nonzero;fill:rgb(100%,100%,100%);fill-opacity:1;" d="M 64.777344 146.386719 L 75.777344 146.386719 L 75.777344 162.386719 L 64.777344 162.386719 Z M 64.777344 146.386719 "/>
<g style="fill:rgb(100%,0%,0%);fill-opacity:1;">
  <use xlink:href="#glyph0-1" x="64.777344" y="158.762695"/>
</g>
<path style="fill:none;stroke-width:1.2;stroke-linecap:butt;stroke-linejoin:miter;stroke:rgb(0%,0%,0%);stroke-opacity:1;stroke-miterlimit:10;" d="M 81.417969 183.292969 L 71.660156 197.59375 "/>
<path style="fill:none;stroke-width:1.2;stroke-linecap:butt;stroke-linejoin:miter;stroke:rgb(100%,0%,0%);stroke-opacity:1;stroke-miterlimit:10;" d="M 71.660156 197.59375 L 61.898438 211.890625 "/>
<path style="fill:none;stroke-width:1.2;stroke-linecap:butt;stroke-linejoin:miter;stroke:rgb(0%,0%,0%);stroke-opacity:1;stroke-miterlimit:10;" d="M 88.148438 187.886719 L 78.386719 202.1875 "/>
<path style="fill:none;stroke-width:1.2;stroke-linecap:butt;stroke-linejoin:miter;stroke:rgb(100%,0%,0%);stroke-opacity:1;stroke-miterlimit:10;" d="M 78.386719 202.1875 L 68.628906 216.484375 "/>
<path style=" stroke:none;fill-rule:nonzero;fill:rgb(0%,0%,0%);fill-opacity:1;" d="M 119.308594 188.195312 L 85.242188 179.496094 L 84.324219 191.683594 Z M 119.308594 188.195312 "/>
<path style=" stroke:none;fill-rule:nonzero;fill:rgb(100%,100%,100%);fill-opacity:1;" d="M 54.261719 206.1875 L 65.261719 206.1875 L 65.261719 222.1875 L 54.261719 222.1875 Z M 54.261719 206.1875 "/>
<g style="fill:rgb(100%,0%,0%);fill-opacity:1;">
  <use xlink:href="#glyph0-1" x="54.261719" y="218.563477"/>
</g>
<path style="fill:none;stroke-width:1.2;stroke-linecap:butt;stroke-linejoin:miter;stroke:rgb(0%,0%,0%);stroke-opacity:1;stroke-miterlimit:10;" d="M 119.308594 188.195312 L 137.496094 217.660156 "/>
<path style="fill:none;stroke-width:1.2;stroke-linecap:butt;stroke-linejoin:miter;stroke:rgb(0%,0%,100%);stroke-opacity:1;stroke-miterlimit:10;" d="M 141.710938 161.796875 L 130.511719 174.996094 "/>
<path style="fill:none;stroke-width:1.2;stroke-linecap:butt;stroke-linejoin:miter;stroke:rgb(0%,0%,0%);stroke-opacity:1;stroke-miterlimit:10;" d="M 130.511719 174.996094 L 119.308594 188.195312 "/>
<path style="fill:none;stroke-width:1;stroke-linecap:butt;stroke-linejoin:miter;stroke:rgb(0%,0%,0%);stroke-opacity:1;stroke-miterlimit:10;" d="M 171.136719 209.46875 L 171.136719 209.46875 M 168.144531 209.664062 L 168.390625 210.675781 M 165.148438 209.855469 L 165.644531 211.882812 M 162.15625 210.046875 L 162.894531 213.085938 M 159.164062 210.238281 L 160.148438 214.292969 M 156.167969 210.433594 L 157.402344 215.496094 M 153.175781 210.625 L 154.65625 216.703125 M 150.179688 210.816406 L 151.90625 217.910156 M 147.1875 211.007812 L 149.160156 219.113281 M 144.195312 211.203125 L 146.414062 220.320312 M 141.199219 211.394531 L 143.667969 221.523438 M 138.207031 211.585938 L 140.917969 222.730469 M 136.050781 211.722656 L 138.941406 223.597656 "/>
<path style="fill:none;stroke-width:1.2;stroke-linecap:butt;stroke-linejoin:miter;stroke:rgb(0%,0%,0%);stroke-opacity:1;stroke-miterlimit:10;" d="M 171.136719 209.46875 L 199.734375 228.992188 "/>
<path style="fill:none;stroke-width:1.2;stroke-linecap:butt;stroke-linejoin:miter;stroke:rgb(0%,0%,0%);stroke-opacity:1;stroke-miterlimit:10;" d="M 173.742188 174.945312 L 171.136719 209.46875 "/>
<path style="fill:none;stroke-width:1.2;stroke-linecap:butt;stroke-linejoin:miter;stroke:rgb(0%,0%,0%);stroke-opacity:1;stroke-miterlimit:10;" d="M 199.734375 228.992188 L 230.941406 213.984375 "/>
<path style="fill:none;stroke-width:1.2;stroke-linecap:butt;stroke-linejoin:miter;stroke:rgb(0%,0%,0%);stroke-opacity:1;stroke-miterlimit:10;" d="M 230.941406 213.984375 L 233.546875 179.457031 "/>
<path style="fill:none;stroke-width:1.2;stroke-linecap:butt;stroke-linejoin:miter;stroke:rgb(0%,0%,0%);stroke-opacity:1;stroke-miterlimit:10;" d="M 233.546875 179.457031 L 204.949219 159.9375 "/>
<path style=" stroke:none;fill-rule:nonzero;fill:rgb(0%,0%,0%);fill-opacity:1;" d="M 233.546875 179.457031 L 267.398438 169.957031 L 262.101562 158.945312 Z M 233.546875 179.457031 "/>
<path style="fill:none;stroke-width:1;stroke-linecap:butt;stroke-linejoin:miter;stroke:rgb(0%,0%,0%);stroke-opacity:1;stroke-miterlimit:10;" d="M 173.742188 174.945312 L 173.742188 174.945312 M 176.632812 174.132812 L 176.179688 173.195312 M 179.519531 173.324219 L 178.617188 171.445312 M 182.410156 172.511719 L 181.054688 169.691406 M 185.296875 171.703125 L 183.488281 167.941406 M 188.1875 170.890625 L 185.925781 166.191406 M 191.074219 170.082031 L 188.363281 164.441406 M 193.964844 169.269531 L 190.800781 162.691406 M 196.851562 168.460938 L 193.234375 160.941406 M 199.738281 167.648438 L 195.671875 159.191406 M 202.628906 166.839844 L 198.109375 157.441406 M 205.515625 166.027344 L 200.546875 155.691406 M 207.597656 165.445312 L 202.300781 154.429688 "/>
<path style="fill:none;stroke-width:1.2;stroke-linecap:butt;stroke-linejoin:miter;stroke:rgb(0%,0%,0%);stroke-opacity:1;stroke-miterlimit:10;" d="M 173.742188 174.945312 L 157.726562 168.371094 "/>
<path style="fill:none;stroke-width:1.2;stroke-linecap:butt;stroke-linejoin:miter;stroke:rgb(0%,0%,100%);stroke-opacity:1;stroke-miterlimit:10;" d="M 157.726562 168.371094 L 141.710938 161.796875 "/>
<path style="fill:none;stroke-width:1.2;stroke-linecap:butt;stroke-linejoin:miter;stroke:rgb(0%,0%,100%);stroke-opacity:1;stroke-miterlimit:10;" d="M 141.710938 161.796875 L 137.617188 144.976562 "/>
<path style="fill:none;stroke-width:1.2;stroke-linecap:butt;stroke-linejoin:miter;stroke:rgb(0%,0%,0%);stroke-opacity:1;stroke-miterlimit:10;" d="M 137.617188 144.976562 L 133.523438 128.152344 "/>
<path style=" stroke:none;fill-rule:nonzero;fill:rgb(100%,100%,100%);fill-opacity:1;" d="M 136.710938 153.796875 L 146.710938 153.796875 L 146.710938 169.796875 L 136.710938 169.796875 Z M 136.710938 153.796875 "/>
<g style="fill:rgb(0%,0%,100%);fill-opacity:1;">
  <use xlink:href="#glyph0-2" x="136.710938" y="166.172852"/>
</g>
<path style="fill:none;stroke-width:1.2;stroke-linecap:butt;stroke-linejoin:miter;stroke:rgb(0%,0%,0%);stroke-opacity:1;stroke-miterlimit:10;" d="M 133.523438 128.152344 L 158.5625 104.238281 "/>
<path style="fill:none;stroke-width:1.2;stroke-linecap:butt;stroke-linejoin:miter;stroke:rgb(0%,0%,0%);stroke-opacity:1;stroke-miterlimit:10;" d="M 158.5625 104.238281 L 168.289062 71.007812 "/>
<path style="fill:none;stroke-width:1.2;stroke-linecap:butt;stroke-linejoin:miter;stroke:rgb(0%,0%,0%);stroke-opacity:1;stroke-miterlimit:10;" d="M 192.203125 96.046875 L 158.5625 104.238281 "/>
<path style="fill:none;stroke-width:1.2;stroke-linecap:butt;stroke-linejoin:miter;stroke:rgb(0%,0%,0%);stroke-opacity:1;stroke-miterlimit:10;" d="M 168.289062 71.007812 L 192.203125 96.046875 "/>
<path style=" stroke:none;fill-rule:nonzero;fill:rgb(100%,100%,100%);fill-opacity:1;" d="M 254.75 156.453125 L 275.75 156.453125 L 275.75 172.453125 L 254.75 172.453125 Z M 254.75 156.453125 "/>
<g style="fill:rgb(100%,0%,0%);fill-opacity:1;">
  <use xlink:href="#glyph0-1" x="254.75" y="168.829102"/>
  <use xlink:href="#glyph0-3" x="265.240234" y="168.829102"/>
</g>
</g>
</svg>

<svg xmlns="http://www.w3.org/2000/svg" xmlns:xlink="http://www.w3.org/1999/xlink" width="300pt" height="300pt" viewBox="0 0 300 300"><defs><symbol overflow="visible"><path d="M.64 2.297v-11.47h6.5v11.47zm.735-.72h5.047V-8.436H1.375zm0 0"/></symbol><symbol overflow="visible" id="a"><path d="M5.125-8.61c-.938 0-1.684.352-2.234 1.047-.542.688-.812 1.633-.812 2.83 0 1.198.27 2.147.813 2.842.55.687 1.297 1.03 2.235 1.03.926 0 1.66-.343 2.203-1.03.55-.696.828-1.645.828-2.844 0-1.196-.277-2.14-.828-2.829-.543-.695-1.277-1.046-2.203-1.046zm0-1.046c1.32 0 2.38.45 3.172 1.344.8.898 1.203 2.09 1.203 3.578 0 1.5-.402 2.7-1.203 3.593C7.504-.255 6.445.186 5.125.186c-1.336 0-2.402-.44-3.203-1.328C1.13-2.036.734-3.235.734-4.735c0-1.49.395-2.68 1.188-3.579.8-.894 1.867-1.343 3.203-1.343zm0 0"/></symbol><symbol overflow="visible" id="b"><path d="M1.28-9.484H3l4.203 7.937v-7.937h1.25V0H6.72L2.515-7.922V0H1.28zm0 0"/></symbol><symbol overflow="visible" id="c"><path d="M1.28-9.484h1.282v3.89H7.22v-3.89H8.5V0H7.22v-4.516H2.562V0H1.28zm0 0"/></symbol></defs><g><path fill="#fff" d="M0 0h300v300H0z"/><path d="M35.25 151.78l17.262 1.302" stroke-width="1.2" stroke="#000" stroke-miterlimit="10" fill="none"/><path d="M52.512 153.082l17.265 1.305M69.777 154.387l7.504 15.6" stroke-width="1.2" stroke="#f00" stroke-miterlimit="10" fill="none"/><path d="M77.28 169.988l7.5 15.602" stroke-width="1.2" stroke="#000" stroke-miterlimit="10" fill="none"/><path d="M64.777 146.387h11v16h-11zm0 0" fill="#fff"/><use xlink:href="#a" x="64.777" y="158.763" fill="#f00"/><path d="M81.418 183.293l-9.758 14.3" stroke-width="1.2" stroke="#000" stroke-miterlimit="10" fill="none"/><path d="M71.66 197.594l-9.762 14.297" stroke-width="1.2" stroke="#f00" stroke-miterlimit="10" fill="none"/><path d="M88.148 187.887l-9.76 14.3" stroke-width="1.2" stroke="#000" stroke-miterlimit="10" fill="none"/><path d="M78.387 202.188l-9.758 14.296" stroke-width="1.2" stroke="#f00" stroke-miterlimit="10" fill="none"/><path d="M119.31 188.195l-34.068-8.7-.918 12.19zm0 0"/><path d="M54.262 206.188h11v16h-11zm0 0" fill="#fff"/><use xlink:href="#a" x="54.262" y="218.563" fill="#f00"/><path d="M119.31 188.195l18.186 29.465" stroke-width="1.2" stroke="#000" stroke-miterlimit="10" fill="none"/><path d="M141.71 161.797l-11.198 13.2" stroke-width="1.2" stroke="#00f" stroke-miterlimit="10" fill="none"/><path d="M130.512 174.996l-11.203 13.2" stroke-width="1.2" stroke="#000" stroke-miterlimit="10" fill="none"/><path d="M171.137 209.47m-2.992.194l.246 1.012m-3.242-.82l.497 2.027m-3.49-1.836l.74 3.04m-3.73-2.85l.983 4.056m-3.98-3.86l1.234 5.063m-4.226-4.87l1.48 6.077m-4.476-5.887l1.726 7.094m-4.72-6.902l1.974 8.105m-4.965-7.91l2.22 9.117m-5.216-8.925l2.468 10.128m-5.46-9.937l2.71 11.144m-4.867-11.007l2.89 11.875" stroke="#000" stroke-miterlimit="10" fill="none"/><path d="M171.137 209.47l28.597 19.522M173.742 174.945l-2.605 34.524M199.734 228.992l31.207-15.008M230.94 213.984l2.607-34.527M233.547 179.457l-28.598-19.52" stroke-width="1.2" stroke="#000" stroke-miterlimit="10" fill="none"/><path d="M233.547 179.457l33.85-9.5-5.295-11.012zm0 0"/><path d="M173.742 174.945m2.89-.812l-.452-.938m3.34.13l-.903-1.88m3.793 1.067l-1.355-2.82m4.242 2.01l-1.81-3.76m4.7 2.95l-2.26-4.7m5.147 3.89l-2.71-5.64m5.6 4.828l-3.163-6.58m6.052 5.77l-3.618-7.52m6.504 6.708l-4.066-8.457m6.957 7.65l-4.52-9.4m7.406 8.587l-4.97-10.336m7.052 9.755L202.3 154.43" stroke="#000" stroke-miterlimit="10" fill="none"/><path d="M173.742 174.945l-16.015-6.574" stroke-width="1.2" stroke="#000" stroke-miterlimit="10" fill="none"/><path d="M157.727 168.37l-16.016-6.573M141.71 161.797l-4.093-16.82" stroke-width="1.2" stroke="#00f" stroke-miterlimit="10" fill="none"/><path d="M137.617 144.977l-4.094-16.825" stroke-width="1.2" stroke="#000" stroke-miterlimit="10" fill="none"/><path d="M136.71 153.797h10v16h-10zm0 0" fill="#fff"/><use xlink:href="#b" x="136.711" y="166.173" fill="#00f"/><path d="M133.523 128.152l25.04-23.914M158.563 104.238l9.726-33.23M192.203 96.047l-33.64 8.19M168.29 71.008l23.913 25.04" stroke-width="1.2" stroke="#000" stroke-miterlimit="10" fill="none"/><path d="M254.75 156.453h21v16h-21zm0 0" fill="#fff"/><g fill="#f00"><use xlink:href="#a" x="254.75" y="168.829"/><use xlink:href="#c" x="265.24" y="168.829"/></g></g></svg>
